X:671
M:C|
L:1/8
K:A
e|A/A/A cA eAcA|=G/G/G GB de=gB|A/A/A cA eAce|=gegB A/A/A A:|
e|A/A/A ag abae|=gaeg dgB=G|A/A/A ag abae|dB=GB A/A/A AB|

